images/3234537.svg

<?xml version="1.0" encoding="UTF-8"?>
<svg xmlns="http://www.w3.org/2000/svg" xmlns:xlink="http://www.w3.org/1999/xlink" width="300pt" height="300pt" viewBox="0 0 300 300" version="1.1">
<defs>
<g>
<symbol overflow="visible" id="glyph0-0">
<path style="stroke:none;" d="M 0.59375 2.125 L 0.59375 -8.46875 L 6.59375 -8.46875 L 6.59375 2.125 Z M 1.265625 1.453125 L 5.9375 1.453125 L 5.9375 -7.78125 L 1.265625 -7.78125 Z M 1.265625 1.453125 "/>
</symbol>
<symbol overflow="visible" id="glyph0-1">
<path style="stroke:none;" d="M 4.734375 -7.953125 C 3.867188 -7.953125 3.179688 -7.628906 2.671875 -6.984375 C 2.171875 -6.347656 1.921875 -5.472656 1.921875 -4.359375 C 1.921875 -3.265625 2.171875 -2.394531 2.671875 -1.75 C 3.179688 -1.113281 3.867188 -0.796875 4.734375 -0.796875 C 5.585938 -0.796875 6.265625 -1.113281 6.765625 -1.75 C 7.273438 -2.394531 7.53125 -3.265625 7.53125 -4.359375 C 7.53125 -5.472656 7.273438 -6.347656 6.765625 -6.984375 C 6.265625 -7.628906 5.585938 -7.953125 4.734375 -7.953125 Z M 4.734375 -8.90625 C 5.953125 -8.90625 6.925781 -8.492188 7.65625 -7.671875 C 8.394531 -6.847656 8.765625 -5.742188 8.765625 -4.359375 C 8.765625 -2.984375 8.394531 -1.882812 7.65625 -1.0625 C 6.925781 -0.238281 5.953125 0.171875 4.734375 0.171875 C 3.503906 0.171875 2.519531 -0.238281 1.78125 -1.0625 C 1.039062 -1.882812 0.671875 -2.984375 0.671875 -4.359375 C 0.671875 -5.742188 1.039062 -6.847656 1.78125 -7.671875 C 2.519531 -8.492188 3.503906 -8.90625 4.734375 -8.90625 Z M 4.734375 -8.90625 "/>
</symbol>
<symbol overflow="visible" id="glyph0-2">
<path style="stroke:none;" d="M 1.171875 -8.75 L 2.765625 -8.75 L 6.65625 -1.4375 L 6.65625 -8.75 L 7.796875 -8.75 L 7.796875 0 L 6.203125 0 L 2.328125 -7.3125 L 2.328125 0 L 1.171875 0 Z M 1.171875 -8.75 "/>
</symbol>
<symbol overflow="visible" id="glyph0-3">
<path style="stroke:none;" d="M 1.171875 -8.75 L 6.203125 -8.75 L 6.203125 -7.75 L 2.359375 -7.75 L 2.359375 -5.171875 L 5.828125 -5.171875 L 5.828125 -4.171875 L 2.359375 -4.171875 L 2.359375 0 L 1.171875 0 Z M 1.171875 -8.75 "/>
</symbol>
</g>
</defs>
<g id="surface33941">
<rect x="0" y="0" width="300" height="300" style="fill:rgb(100%,100%,100%);fill-opacity:1;stroke:none;"/>
<path style="fill:none;stroke-width:1.2;stroke-linecap:butt;stroke-linejoin:miter;stroke:rgb(0%,0%,0%);stroke-opacity:1;stroke-miterlimit:10;" d="M 66.46875 71.023438 L 89.109375 89.046875 "/>
<path style="fill:none;stroke-width:1.2;stroke-linecap:butt;stroke-linejoin:miter;stroke:rgb(0%,0%,0%);stroke-opacity:1;stroke-miterlimit:10;" d="M 64.492188 78.152344 L 82.605469 92.570312 "/>
<path style="fill:none;stroke-width:1.2;stroke-linecap:butt;stroke-linejoin:miter;stroke:rgb(0%,0%,0%);stroke-opacity:1;stroke-miterlimit:10;" d="M 39.539062 81.617188 L 66.46875 71.023438 "/>
<path style="fill:none;stroke-width:1.2;stroke-linecap:butt;stroke-linejoin:miter;stroke:rgb(0%,0%,0%);stroke-opacity:1;stroke-miterlimit:10;" d="M 89.109375 89.046875 L 84.820312 117.667969 "/>
<path style="fill:none;stroke-width:1.2;stroke-linecap:butt;stroke-linejoin:miter;stroke:rgb(0%,0%,0%);stroke-opacity:1;stroke-miterlimit:10;" d="M 84.820312 117.667969 L 57.890625 128.261719 "/>
<path style="fill:none;stroke-width:1.2;stroke-linecap:butt;stroke-linejoin:miter;stroke:rgb(0%,0%,0%);stroke-opacity:1;stroke-miterlimit:10;" d="M 79.632812 112.390625 L 58.089844 120.867188 "/>
<path style="fill:none;stroke-width:1.2;stroke-linecap:butt;stroke-linejoin:miter;stroke:rgb(0%,0%,0%);stroke-opacity:1;stroke-miterlimit:10;" d="M 57.890625 128.261719 L 35.25 110.238281 "/>
<path style="fill:none;stroke-width:1.2;stroke-linecap:butt;stroke-linejoin:miter;stroke:rgb(0%,0%,0%);stroke-opacity:1;stroke-miterlimit:10;" d="M 57.890625 128.261719 L 55.746094 142.570312 "/>
<path style="fill:none;stroke-width:1.2;stroke-linecap:butt;stroke-linejoin:miter;stroke:rgb(100%,0%,0%);stroke-opacity:1;stroke-miterlimit:10;" d="M 55.746094 142.570312 L 53.601562 156.882812 "/>
<path style="fill:none;stroke-width:1.2;stroke-linecap:butt;stroke-linejoin:miter;stroke:rgb(0%,0%,0%);stroke-opacity:1;stroke-miterlimit:10;" d="M 35.25 110.238281 L 39.539062 81.617188 "/>
<path style="fill:none;stroke-width:1.2;stroke-linecap:butt;stroke-linejoin:miter;stroke:rgb(0%,0%,0%);stroke-opacity:1;stroke-miterlimit:10;" d="M 42.414062 108.386719 L 45.84375 85.488281 "/>
<path style="fill:none;stroke-width:1.2;stroke-linecap:butt;stroke-linejoin:miter;stroke:rgb(100%,0%,0%);stroke-opacity:1;stroke-miterlimit:10;" d="M 53.601562 156.882812 L 64.921875 165.894531 "/>
<path style="fill:none;stroke-width:1.2;stroke-linecap:butt;stroke-linejoin:miter;stroke:rgb(0%,0%,0%);stroke-opacity:1;stroke-miterlimit:10;" d="M 64.921875 165.894531 L 76.242188 174.90625 "/>
<path style=" stroke:none;fill-rule:nonzero;fill:rgb(100%,100%,100%);fill-opacity:1;" d="M 48.601562 149.882812 L 58.601562 149.882812 L 58.601562 163.882812 L 48.601562 163.882812 Z M 48.601562 149.882812 "/>
<g style="fill:rgb(100%,0%,0%);fill-opacity:1;">
  <use xlink:href="#glyph0-1" x="48.601562" y="161.021484"/>
</g>
<path style="fill:none;stroke-width:1.2;stroke-linecap:butt;stroke-linejoin:miter;stroke:rgb(0%,0%,0%);stroke-opacity:1;stroke-miterlimit:10;" d="M 76.242188 174.90625 L 74.097656 189.214844 "/>
<path style="fill:none;stroke-width:1.2;stroke-linecap:butt;stroke-linejoin:miter;stroke:rgb(0%,0%,100%);stroke-opacity:1;stroke-miterlimit:10;" d="M 74.097656 189.214844 L 71.953125 203.523438 "/>
<path style="fill:none;stroke-width:1.2;stroke-linecap:butt;stroke-linejoin:miter;stroke:rgb(0%,0%,0%);stroke-opacity:1;stroke-miterlimit:10;" d="M 82.546875 178.777344 L 80.832031 190.222656 "/>
<path style="fill:none;stroke-width:1.2;stroke-linecap:butt;stroke-linejoin:miter;stroke:rgb(0%,0%,100%);stroke-opacity:1;stroke-miterlimit:10;" d="M 80.832031 190.222656 L 79.117188 201.671875 "/>
<path style="fill:none;stroke-width:1.2;stroke-linecap:butt;stroke-linejoin:miter;stroke:rgb(0%,0%,100%);stroke-opacity:1;stroke-miterlimit:10;" d="M 103.171875 164.308594 L 89.707031 169.609375 "/>
<path style="fill:none;stroke-width:1.2;stroke-linecap:butt;stroke-linejoin:miter;stroke:rgb(0%,0%,0%);stroke-opacity:1;stroke-miterlimit:10;" d="M 89.707031 169.609375 L 76.242188 174.90625 "/>
<path style="fill:none;stroke-width:1.2;stroke-linecap:butt;stroke-linejoin:miter;stroke:rgb(0%,0%,100%);stroke-opacity:1;stroke-miterlimit:10;" d="M 71.953125 203.523438 L 83.273438 212.535156 "/>
<path style="fill:none;stroke-width:1.2;stroke-linecap:butt;stroke-linejoin:miter;stroke:rgb(0%,0%,0%);stroke-opacity:1;stroke-miterlimit:10;" d="M 83.273438 212.535156 L 94.59375 221.546875 "/>
<path style=" stroke:none;fill-rule:nonzero;fill:rgb(100%,100%,100%);fill-opacity:1;" d="M 67.953125 196.523438 L 76.953125 196.523438 L 76.953125 210.523438 L 67.953125 210.523438 Z M 67.953125 196.523438 "/>
<g style="fill:rgb(0%,0%,100%);fill-opacity:1;">
  <use xlink:href="#glyph0-2" x="67.953125" y="207.662109"/>
</g>
<path style="fill:none;stroke-width:1.2;stroke-linecap:butt;stroke-linejoin:miter;stroke:rgb(0%,0%,0%);stroke-opacity:1;stroke-miterlimit:10;" d="M 94.59375 221.546875 L 121.523438 210.953125 "/>
<path style="fill:none;stroke-width:1.2;stroke-linecap:butt;stroke-linejoin:miter;stroke:rgb(0%,0%,0%);stroke-opacity:1;stroke-miterlimit:10;" d="M 94.792969 214.152344 L 116.339844 205.675781 "/>
<path style="fill:none;stroke-width:1.2;stroke-linecap:butt;stroke-linejoin:miter;stroke:rgb(0%,0%,0%);stroke-opacity:1;stroke-miterlimit:10;" d="M 121.523438 210.953125 L 125.8125 182.332031 "/>
<path style="fill:none;stroke-width:1.2;stroke-linecap:butt;stroke-linejoin:miter;stroke:rgb(0%,0%,100%);stroke-opacity:1;stroke-miterlimit:10;" d="M 144.164062 228.976562 L 132.84375 219.964844 "/>
<path style="fill:none;stroke-width:1.2;stroke-linecap:butt;stroke-linejoin:miter;stroke:rgb(0%,0%,0%);stroke-opacity:1;stroke-miterlimit:10;" d="M 132.84375 219.964844 L 121.523438 210.953125 "/>
<path style="fill:none;stroke-width:1.2;stroke-linecap:butt;stroke-linejoin:miter;stroke:rgb(0%,0%,0%);stroke-opacity:1;stroke-miterlimit:10;" d="M 125.8125 182.332031 L 114.492188 173.320312 "/>
<path style="fill:none;stroke-width:1.2;stroke-linecap:butt;stroke-linejoin:miter;stroke:rgb(0%,0%,100%);stroke-opacity:1;stroke-miterlimit:10;" d="M 114.492188 173.320312 L 103.171875 164.308594 "/>
<path style="fill:none;stroke-width:1.2;stroke-linecap:butt;stroke-linejoin:miter;stroke:rgb(0%,0%,0%);stroke-opacity:1;stroke-miterlimit:10;" d="M 119.308594 185.859375 L 110.253906 178.648438 "/>
<path style="fill:none;stroke-width:1.2;stroke-linecap:butt;stroke-linejoin:miter;stroke:rgb(0%,0%,100%);stroke-opacity:1;stroke-miterlimit:10;" d="M 110.253906 178.648438 L 101.195312 171.4375 "/>
<path style="fill:none;stroke-width:1.2;stroke-linecap:butt;stroke-linejoin:miter;stroke:rgb(0%,0%,0%);stroke-opacity:1;stroke-miterlimit:10;" d="M 125.8125 182.332031 L 139.277344 177.035156 "/>
<path style="fill:none;stroke-width:1.2;stroke-linecap:butt;stroke-linejoin:miter;stroke:rgb(0%,0%,100%);stroke-opacity:1;stroke-miterlimit:10;" d="M 139.277344 177.035156 L 152.742188 171.738281 "/>
<path style=" stroke:none;fill-rule:nonzero;fill:rgb(100%,100%,100%);fill-opacity:1;" d="M 99.171875 157.308594 L 108.171875 157.308594 L 108.171875 171.308594 L 99.171875 171.308594 Z M 99.171875 157.308594 "/>
<g style="fill:rgb(0%,0%,100%);fill-opacity:1;">
  <use xlink:href="#glyph0-2" x="99.171875" y="168.447266"/>
</g>
<path style="fill:none;stroke-width:1.2;stroke-linecap:butt;stroke-linejoin:miter;stroke:rgb(0%,0%,100%);stroke-opacity:1;stroke-miterlimit:10;" d="M 152.742188 171.738281 L 164.0625 180.75 "/>
<path style="fill:none;stroke-width:1.2;stroke-linecap:butt;stroke-linejoin:miter;stroke:rgb(0%,0%,0%);stroke-opacity:1;stroke-miterlimit:10;" d="M 164.0625 180.75 L 175.382812 189.761719 "/>
<path style="fill:none;stroke-width:1.2;stroke-linecap:butt;stroke-linejoin:miter;stroke:rgb(0%,0%,100%);stroke-opacity:1;stroke-miterlimit:10;" d="M 152.742188 171.738281 L 154.886719 157.429688 "/>
<path style="fill:none;stroke-width:1.2;stroke-linecap:butt;stroke-linejoin:miter;stroke:rgb(0%,0%,0%);stroke-opacity:1;stroke-miterlimit:10;" d="M 154.886719 157.429688 L 157.03125 143.117188 "/>
<path style=" stroke:none;fill-rule:nonzero;fill:rgb(100%,100%,100%);fill-opacity:1;" d="M 148.742188 164.738281 L 157.742188 164.738281 L 157.742188 178.738281 L 148.742188 178.738281 Z M 148.742188 164.738281 "/>
<g style="fill:rgb(0%,0%,100%);fill-opacity:1;">
  <use xlink:href="#glyph0-2" x="148.742188" y="175.876953"/>
</g>
<path style="fill:none;stroke-width:1.2;stroke-linecap:butt;stroke-linejoin:miter;stroke:rgb(0%,0%,0%);stroke-opacity:1;stroke-miterlimit:10;" d="M 176.628906 192.929688 L 190.09375 187.632812 "/>
<path style="fill:none;stroke-width:1.2;stroke-linecap:butt;stroke-linejoin:miter;stroke:rgb(100%,0%,0%);stroke-opacity:1;stroke-miterlimit:10;" d="M 190.09375 187.632812 L 203.558594 182.335938 "/>
<path style="fill:none;stroke-width:1.2;stroke-linecap:butt;stroke-linejoin:miter;stroke:rgb(0%,0%,0%);stroke-opacity:1;stroke-miterlimit:10;" d="M 174.136719 186.59375 L 187.601562 181.296875 "/>
<path style="fill:none;stroke-width:1.2;stroke-linecap:butt;stroke-linejoin:miter;stroke:rgb(100%,0%,0%);stroke-opacity:1;stroke-miterlimit:10;" d="M 187.601562 181.296875 L 201.066406 176 "/>
<path style="fill:none;stroke-width:1.2;stroke-linecap:butt;stroke-linejoin:miter;stroke:rgb(0%,0%,0%);stroke-opacity:1;stroke-miterlimit:10;" d="M 175.382812 189.761719 L 171.09375 218.382812 "/>
<path style=" stroke:none;fill-rule:nonzero;fill:rgb(100%,100%,100%);fill-opacity:1;" d="M 197.3125 172.167969 L 207.3125 172.167969 L 207.3125 186.167969 L 197.3125 186.167969 Z M 197.3125 172.167969 "/>
<g style="fill:rgb(100%,0%,0%);fill-opacity:1;">
  <use xlink:href="#glyph0-1" x="197.3125" y="183.306641"/>
</g>
<path style="fill:none;stroke-width:1.2;stroke-linecap:butt;stroke-linejoin:miter;stroke:rgb(0%,0%,0%);stroke-opacity:1;stroke-miterlimit:10;" d="M 171.09375 218.382812 L 157.628906 223.679688 "/>
<path style="fill:none;stroke-width:1.2;stroke-linecap:butt;stroke-linejoin:miter;stroke:rgb(0%,0%,100%);stroke-opacity:1;stroke-miterlimit:10;" d="M 157.628906 223.679688 L 144.164062 228.976562 "/>
<path style="fill:none;stroke-width:1.2;stroke-linecap:butt;stroke-linejoin:miter;stroke:rgb(0%,0%,0%);stroke-opacity:1;stroke-miterlimit:10;" d="M 165.910156 213.105469 L 155.136719 217.34375 "/>
<path style="fill:none;stroke-width:1.2;stroke-linecap:butt;stroke-linejoin:miter;stroke:rgb(0%,0%,100%);stroke-opacity:1;stroke-miterlimit:10;" d="M 155.136719 217.34375 L 144.367188 221.582031 "/>
<path style=" stroke:none;fill-rule:nonzero;fill:rgb(100%,100%,100%);fill-opacity:1;" d="M 140.164062 221.976562 L 149.164062 221.976562 L 149.164062 235.976562 L 140.164062 235.976562 Z M 140.164062 221.976562 "/>
<g style="fill:rgb(0%,0%,100%);fill-opacity:1;">
  <use xlink:href="#glyph0-2" x="140.164062" y="233.115234"/>
</g>
<path style="fill:none;stroke-width:1.2;stroke-linecap:butt;stroke-linejoin:miter;stroke:rgb(0%,0%,0%);stroke-opacity:1;stroke-miterlimit:10;" d="M 157.03125 143.117188 L 183.960938 132.523438 "/>
<path style="fill:none;stroke-width:1.2;stroke-linecap:butt;stroke-linejoin:miter;stroke:rgb(0%,0%,0%);stroke-opacity:1;stroke-miterlimit:10;" d="M 183.960938 132.523438 L 206.601562 150.546875 "/>
<path style="fill:none;stroke-width:1.2;stroke-linecap:butt;stroke-linejoin:miter;stroke:rgb(0%,0%,0%);stroke-opacity:1;stroke-miterlimit:10;" d="M 190.464844 129 L 208.578125 143.417969 "/>
<path style="fill:none;stroke-width:1.2;stroke-linecap:butt;stroke-linejoin:miter;stroke:rgb(0%,0%,0%);stroke-opacity:1;stroke-miterlimit:10;" d="M 188.25 103.902344 L 183.960938 132.523438 "/>
<path style="fill:none;stroke-width:1.2;stroke-linecap:butt;stroke-linejoin:miter;stroke:rgb(0%,0%,0%);stroke-opacity:1;stroke-miterlimit:10;" d="M 206.601562 150.546875 L 233.53125 139.953125 "/>
<path style="fill:none;stroke-width:1.2;stroke-linecap:butt;stroke-linejoin:miter;stroke:rgb(0%,0%,0%);stroke-opacity:1;stroke-miterlimit:10;" d="M 233.53125 139.953125 L 237.820312 111.332031 "/>
<path style="fill:none;stroke-width:1.2;stroke-linecap:butt;stroke-linejoin:miter;stroke:rgb(0%,0%,0%);stroke-opacity:1;stroke-miterlimit:10;" d="M 227.226562 136.082031 L 230.65625 113.183594 "/>
<path style="fill:none;stroke-width:1.2;stroke-linecap:butt;stroke-linejoin:miter;stroke:rgb(0%,0%,0%);stroke-opacity:1;stroke-miterlimit:10;" d="M 237.820312 111.332031 L 215.179688 93.308594 "/>
<path style="fill:none;stroke-width:1.2;stroke-linecap:butt;stroke-linejoin:miter;stroke:rgb(0%,0%,0%);stroke-opacity:1;stroke-miterlimit:10;" d="M 237.820312 111.332031 L 251.285156 106.035156 "/>
<path style="fill:none;stroke-width:1.2;stroke-linecap:butt;stroke-linejoin:miter;stroke:rgb(20%,80%,80%);stroke-opacity:1;stroke-miterlimit:10;" d="M 251.285156 106.035156 L 264.75 100.734375 "/>
<path style="fill:none;stroke-width:1.2;stroke-linecap:butt;stroke-linejoin:miter;stroke:rgb(0%,0%,0%);stroke-opacity:1;stroke-miterlimit:10;" d="M 215.179688 93.308594 L 188.25 103.902344 "/>
<path style="fill:none;stroke-width:1.2;stroke-linecap:butt;stroke-linejoin:miter;stroke:rgb(0%,0%,0%);stroke-opacity:1;stroke-miterlimit:10;" d="M 214.980469 100.703125 L 193.4375 109.179688 "/>
<path style=" stroke:none;fill-rule:nonzero;fill:rgb(100%,100%,100%);fill-opacity:1;" d="M 261.75 93.734375 L 268.75 93.734375 L 268.75 107.734375 L 261.75 107.734375 Z M 261.75 93.734375 "/>
<g style="fill:rgb(20%,80%,80%);fill-opacity:1;">
  <use xlink:href="#glyph0-3" x="261.75" y="104.873047"/>
</g>
</g>
</svg>

<svg xmlns="http://www.w3.org/2000/svg" xmlns:xlink="http://www.w3.org/1999/xlink" width="300pt" height="300pt" viewBox="0 0 300 300"><defs><symbol overflow="visible"><path d="M.594 2.125V-8.47h6V2.126zm.672-.672h4.671V-7.78h-4.67zm0 0"/></symbol><symbol overflow="visible" id="a"><path d="M4.734-7.953c-.867 0-1.554.324-2.062.97-.5.635-.75 1.51-.75 2.624 0 1.094.25 1.965.75 2.61.508.637 1.195.953 2.062.953.852 0 1.532-.316 2.032-.953.507-.645.765-1.516.765-2.61 0-1.113-.257-1.988-.764-2.624-.5-.645-1.18-.97-2.032-.97zm0-.953c1.22 0 2.192.414 2.922 1.234.74.824 1.11 1.93 1.11 3.313 0 1.376-.37 2.477-1.11 3.298C6.926-.24 5.953.17 4.734.17c-1.23 0-2.214-.41-2.953-1.234C1.04-1.882.673-2.984.673-4.36c0-1.382.367-2.488 1.11-3.312.738-.82 1.722-1.234 2.952-1.234zm0 0"/></symbol><symbol overflow="visible" id="b"><path d="M1.172-8.75h1.594l3.89 7.313V-8.75h1.14V0H6.204L2.328-7.313V0H1.172zm0 0"/></symbol><symbol overflow="visible" id="c"><path d="M1.172-8.75h5.03v1H2.36v2.578h3.468v1h-3.47V0H1.173zm0 0"/></symbol></defs><g><path fill="#fff" d="M0 0h300v300H0z"/><path d="M66.47 71.023l22.64 18.024M64.492 78.152L82.605 92.57M39.54 81.617l26.93-10.594M89.11 89.047l-4.29 28.62M84.82 117.668l-26.93 10.594M79.633 112.39l-21.543 8.477M57.89 128.262l-22.64-18.024M57.89 128.262l-2.144 14.308" stroke-width="1.2" stroke="#000" stroke-miterlimit="10" fill="none"/><path d="M55.746 142.57l-2.144 14.313" stroke-width="1.2" stroke="#f00" stroke-miterlimit="10" fill="none"/><path d="M35.25 110.238l4.29-28.62M42.414 108.387l3.43-22.9" stroke-width="1.2" stroke="#000" stroke-miterlimit="10" fill="none"/><path d="M53.602 156.883l11.32 9.012" stroke-width="1.2" stroke="#f00" stroke-miterlimit="10" fill="none"/><path d="M64.922 165.895l11.32 9.01" stroke-width="1.2" stroke="#000" stroke-miterlimit="10" fill="none"/><path d="M48.602 149.883h10v14h-10zm0 0" fill="#fff"/><use xlink:href="#a" x="48.602" y="161.021" fill="#f00"/><path d="M76.242 174.906l-2.144 14.31" stroke-width="1.2" stroke="#000" stroke-miterlimit="10" fill="none"/><path d="M74.098 189.215l-2.145 14.308" stroke-width="1.2" stroke="#00f" stroke-miterlimit="10" fill="none"/><path d="M82.547 178.777l-1.715 11.446" stroke-width="1.2" stroke="#000" stroke-miterlimit="10" fill="none"/><path d="M80.832 190.223l-1.715 11.45M103.172 164.31l-13.465 5.3" stroke-width="1.2" stroke="#00f" stroke-miterlimit="10" fill="none"/><path d="M89.707 169.61l-13.465 5.296" stroke-width="1.2" stroke="#000" stroke-miterlimit="10" fill="none"/><path d="M71.953 203.523l11.32 9.012" stroke-width="1.2" stroke="#00f" stroke-miterlimit="10" fill="none"/><path d="M83.273 212.535l11.32 9.012" stroke-width="1.2" stroke="#000" stroke-miterlimit="10" fill="none"/><path d="M67.953 196.523h9v14h-9zm0 0" fill="#fff"/><use xlink:href="#b" x="67.953" y="207.662" fill="#00f"/><path d="M94.594 221.547l26.93-10.594M94.793 214.152l21.547-8.476M121.523 210.953l4.29-28.62" stroke-width="1.2" stroke="#000" stroke-miterlimit="10" fill="none"/><path d="M144.164 228.977l-11.32-9.012" stroke-width="1.2" stroke="#00f" stroke-miterlimit="10" fill="none"/><path d="M132.844 219.965l-11.32-9.012M125.813 182.332l-11.32-9.012" stroke-width="1.2" stroke="#000" stroke-miterlimit="10" fill="none"/><path d="M114.492 173.32l-11.32-9.01" stroke-width="1.2" stroke="#00f" stroke-miterlimit="10" fill="none"/><path d="M119.31 185.86l-9.056-7.212" stroke-width="1.2" stroke="#000" stroke-miterlimit="10" fill="none"/><path d="M110.254 178.648l-9.06-7.21" stroke-width="1.2" stroke="#00f" stroke-miterlimit="10" fill="none"/><path d="M125.813 182.332l13.464-5.297" stroke-width="1.2" stroke="#000" stroke-miterlimit="10" fill="none"/><path d="M139.277 177.035l13.465-5.297" stroke-width="1.2" stroke="#00f" stroke-miterlimit="10" fill="none"/><path d="M99.172 157.31h9v14h-9zm0 0" fill="#fff"/><use xlink:href="#b" x="99.172" y="168.447" fill="#00f"/><path d="M152.742 171.738l11.32 9.012" stroke-width="1.2" stroke="#00f" stroke-miterlimit="10" fill="none"/><path d="M164.063 180.75l11.32 9.012" stroke-width="1.2" stroke="#000" stroke-miterlimit="10" fill="none"/><path d="M152.742 171.738l2.145-14.308" stroke-width="1.2" stroke="#00f" stroke-miterlimit="10" fill="none"/><path d="M154.887 157.43l2.144-14.313" stroke-width="1.2" stroke="#000" stroke-miterlimit="10" fill="none"/><path d="M148.742 164.738h9v14h-9zm0 0" fill="#fff"/><use xlink:href="#b" x="148.742" y="175.877" fill="#00f"/><path d="M176.63 192.93l13.464-5.297" stroke-width="1.2" stroke="#000" stroke-miterlimit="10" fill="none"/><path d="M190.094 187.633l13.465-5.297" stroke-width="1.2" stroke="#f00" stroke-miterlimit="10" fill="none"/><path d="M174.137 186.594l13.465-5.297" stroke-width="1.2" stroke="#000" stroke-miterlimit="10" fill="none"/><path d="M187.602 181.297L201.066 176" stroke-width="1.2" stroke="#f00" stroke-miterlimit="10" fill="none"/><path d="M175.383 189.762l-4.29 28.62" stroke-width="1.2" stroke="#000" stroke-miterlimit="10" fill="none"/><path d="M197.313 172.168h10v14h-10zm0 0" fill="#fff"/><use xlink:href="#a" x="197.313" y="183.307" fill="#f00"/><path d="M171.094 218.383l-13.465 5.297" stroke-width="1.2" stroke="#000" stroke-miterlimit="10" fill="none"/><path d="M157.63 223.68l-13.466 5.297" stroke-width="1.2" stroke="#00f" stroke-miterlimit="10" fill="none"/><path d="M165.91 213.105l-10.773 4.24" stroke-width="1.2" stroke="#000" stroke-miterlimit="10" fill="none"/><path d="M155.137 217.344l-10.77 4.238" stroke-width="1.2" stroke="#00f" stroke-miterlimit="10" fill="none"/><path d="M140.164 221.977h9v14h-9zm0 0" fill="#fff"/><use xlink:href="#b" x="140.164" y="233.115" fill="#00f"/><path d="M157.03 143.117l26.93-10.594M183.96 132.523l22.642 18.024M190.465 129l18.113 14.418M188.25 103.902l-4.29 28.62M206.602 150.547l26.93-10.594M233.53 139.953l4.29-28.62M227.227 136.082l3.43-22.898M237.82 111.332L215.18 93.31M237.82 111.332l13.465-5.297" stroke-width="1.2" stroke="#000" stroke-miterlimit="10" fill="none"/><path d="M251.285 106.035l13.465-5.3" stroke-width="1.2" stroke="#3cc" stroke-miterlimit="10" fill="none"/><path d="M215.18 93.31L188.25 103.9M214.98 100.703l-21.542 8.477" stroke-width="1.2" stroke="#000" stroke-miterlimit="10" fill="none"/><path d="M261.75 93.734h7v14h-7zm0 0" fill="#fff"/><use xlink:href="#c" x="261.75" y="104.873" fill="#3cc"/></g></svg>
